X:470
%%etbk:tnset id:189,pos:1,rep:3,ant:
T:Wild Rover
H: Created 2013-03-06 /  Modified 2013-03-06
R: song
M:3/4
L:1/4
K: Dmaj
 D | "D"!2!D3/2 E/2 D | !2!D !1!A, !3!F | !3!F/2 E3/2 F | "G"!4!G2 A | "D"!5!A F A | "A"!4!G/2 !3!E3/2 !2!C | !1!A,/2 !4!F3/2 E|  "D"!2!D2 D | 
"D"!2!D E3/2 D/2 | !2!D !1!A, !3!F | !3!F E F | "G"!4!G2 A | "D"!5!A/2 F3/2 A | "A"!4!G/2- !3!E3/2 !2!C/2C/2 | !1!A, !4!F !3!E|  "D"!2!D !1!C !2!D |
 "A"!3!E3 | E3 | !2!C/2 !1!A,3/2- A,- | A,3- | "D"A, !3!F F | !3!F/2 E3/2 F | "G"!4!G3-| G F G| 
"D"!5!A3-| A3/2 !3!F/2 !1!D| "G"!3!C !2!B,2-| B,2 B,| "A"!1!A,/2 !3!F3/2- F-|\
 F2 E| "D"!1!D3-| D2 z|


